src/main/resources/icons/AllIcons/codeStyle/AddNewSectionRule_dark.svg

<!-- Copyright 2000-2021 JetBrains s.r.o. Use of this source code is governed by the Apache 2.0 license that can be found in the LICENSE file. -->
<svg xmlns="http://www.w3.org/2000/svg" width="16" height="16" viewBox="0 0 16 16">
  <g fill="none" fill-rule="evenodd">
    <rect width="2" height="10" x="5" y="3" fill="#AFB1B3"/>
    <rect width="2" height="10" x="5" y="3" fill="#AFB1B3" transform="rotate(90 6 8)"/>
    <path fill="#AFB1B3" d="M13.4280004,15.93 C12.4530004,15.93 11.3740004,15.592 10.5160004,14.903 L11.2180004,13.837 C11.9720004,14.396 12.7650004,14.682 13.4670004,14.682 C14.1430004,14.682 14.5330004,14.396 14.5330004,13.941 L14.5330004,13.915 C14.5330004,13.382 13.8050004,13.2 12.9990004,12.953 C11.9850004,12.667 10.8540004,12.251 10.8540004,10.951 L10.8540004,10.925 C10.8540004,9.61199995 11.9330004,8.81899995 13.2980004,8.81899995 C14.1560004,8.81899995 15.0920004,9.11799995 15.8200004,9.59899995 L15.1960004,10.717 C14.5330004,10.314 13.8310004,10.067 13.2590004,10.067 C12.6480004,10.067 12.2970004,10.366 12.2970004,10.743 L12.2970004,10.769 C12.2970004,11.276 13.0380004,11.484 13.8440004,11.744 C14.8450004,12.056 15.9760004,12.511 15.9760004,13.746 L15.9760004,13.772 C15.9760004,15.215 14.8580004,15.93 13.4280004,15.93 Z"/>
  </g>
</svg>

<svg xmlns="http://www.w3.org/2000/svg" width="16" height="16" viewBox="0 0 16 16"><rect id="frame" width="16" height="16" fill="none"/><g fill="#AFB1B3" fill-rule="evenodd"><path d="M5 3h2v10H5z"/><path d="M11 7v2H1V7z"/><path d="M13.428 15.93a4.74 4.74 0 0 1-2.912-1.027l.702-1.066c.754.559 1.547.845 2.249.845.676 0 1.066-.286 1.066-.741v-.026c0-.533-.728-.715-1.534-.962-1.014-.286-2.145-.702-2.145-2.002v-.026c0-1.313 1.079-2.106 2.444-2.106.858 0 1.794.299 2.522.78l-.624 1.118c-.663-.403-1.365-.65-1.937-.65-.611 0-.962.299-.962.676v.026c0 .507.741.715 1.547.975 1.001.312 2.132.767 2.132 2.002v.026c0 1.443-1.118 2.158-2.548 2.158z"/></g></svg>
